src/symbols/warning/26A0.svg

<svg id="emoji" viewBox="0 0 72 72" xmlns="http://www.w3.org/2000/svg">
  <g id="grid">
    <path fill="#b3b3b3" d="M68,4V68H4V4H68m4-4H0V72H72V0Z"/>
    <path fill="none" stroke="#00a5ff" stroke-miterlimit="10" stroke-width="0.1" d="M12.923,10.9583H59.0769A1.9231,1.9231,0,0,1,61,12.8814V59.0352a1.9231,1.9231,0,0,1-1.9231,1.9231H12.9231A1.9231,1.9231,0,0,1,11,59.0352V12.8813A1.923,1.923,0,0,1,12.923,10.9583Z"/>
    <rect x="16" y="4" rx="2.2537" width="40" height="64" fill="none" stroke="#00a5ff" stroke-miterlimit="10" stroke-width="0.1"/>
    <rect x="16" y="4" rx="2.2537" width="40" height="64" transform="translate(72) rotate(90)" fill="none" stroke="#00a5ff" stroke-miterlimit="10" stroke-width="0.1"/>
    <circle cx="36" cy="36" r="29" fill="none" stroke="#00a5ff" stroke-miterlimit="10" stroke-width="0.1"/>
  </g>
  <g id="color">
    <path fill="#fcea2b" stroke="none" stroke-linecap="round" stroke-linejoin="round" stroke-miterlimit="10" stroke-width="2" d="M32.5222,13.005c0.6977-1.2046,1.9862-2.0244,3.4778-2.0244c1.4916,0,2.7801,0.8198,3.4778,2.0244l20.9678,41.9351 C60.7889,55.5339,61,56.2136,61,56.9483c0,2.2272-1.8051,4.0323-4.0323,4.0323l-41.9354,0.0173 C12.8051,60.9979,11,59.192,11,56.9657c0-0.7356,0.211-1.4145,0.5544-2.0083L32.5222,13.005"/>
    <path fill="#FFFFFF" stroke="none" stroke-linecap="round" stroke-linejoin="round" stroke-miterlimit="10" stroke-width="2" d="M37.6129,47.2709c0,0.8907-0.7222,1.6129-1.6129,1.6129c-0.8907,0-1.6129-0.7222-1.6129-1.6129V23.8925 c0-0.8907,0.7222-1.6129,1.6129-1.6129c0.8907,0,1.6129,0.7222,1.6129,1.6129V47.2709z"/>
    <circle cx="36" cy="54.529" r="1.6129" fill="#FFFFFF" stroke="none" stroke-linecap="round" stroke-linejoin="round" stroke-miterlimit="10" stroke-width="2"/>
  </g>
  <g id="hair"/>
  <g id="skin"/>
  <g id="skin-shadow"/>
  <g id="line">
    <path fill="none" stroke="#000000" stroke-linecap="round" stroke-linejoin="round" stroke-miterlimit="10" stroke-width="2" d="M32.5222,13.005c0.6977-1.2046,1.9862-2.0244,3.4778-2.0244c1.4916,0,2.7801,0.8198,3.4778,2.0244l20.9678,41.9351 C60.7889,55.5339,61,56.2136,61,56.9483c0,2.2272-1.8051,4.0323-4.0323,4.0323l-41.9354,0.0173 C12.8051,60.9979,11,59.192,11,56.9657c0-0.7356,0.211-1.4145,0.5544-2.0083L32.5222,13.005"/>
    <path fill="none" stroke="#000000" stroke-linecap="round" stroke-linejoin="round" stroke-miterlimit="10" stroke-width="2" d="M37.6129,47.2709c0,0.8907-0.7222,1.6129-1.6129,1.6129c-0.8907,0-1.6129-0.7222-1.6129-1.6129V23.8925 c0-0.8907,0.7222-1.6129,1.6129-1.6129c0.8907,0,1.6129,0.7222,1.6129,1.6129V47.2709z"/>
    <circle cx="36" cy="54.529" r="1.6129" fill="none" stroke="#000000" stroke-linecap="round" stroke-linejoin="round" stroke-miterlimit="10" stroke-width="2"/>
  </g>
</svg>

<svg viewBox="0 0 72 72" xmlns="http://www.w3.org/2000/svg"><path fill="#b3b3b3" d="M68 4v64H4V4h64m4-4H0v72h72V0z"/><path fill="none" stroke="#00a5ff" stroke-miterlimit="10" stroke-width=".1" d="M12.923 10.958h46.154A1.923 1.923 0 0161 12.881v46.154a1.923 1.923 0 01-1.923 1.923H12.923A1.923 1.923 0 0111 59.035V12.881a1.923 1.923 0 011.923-1.923z"/><rect x="16" y="4" rx="2.254" width="40" height="64" fill="none" stroke="#00a5ff" stroke-miterlimit="10" stroke-width=".1"/><rect x="16" y="4" rx="2.254" width="40" height="64" transform="rotate(90 36 36)" fill="none" stroke="#00a5ff" stroke-miterlimit="10" stroke-width=".1"/><circle cx="36" cy="36" r="29" fill="none" stroke="#00a5ff" stroke-miterlimit="10" stroke-width=".1"/><g stroke-linecap="round" stroke-miterlimit="10" stroke-width="6" stroke="#fff" fill="none" stroke-linejoin="round"><path d="M32.522 13.005c.698-1.205 1.986-2.024 3.478-2.024 1.492 0 2.78.82 3.478 2.024L60.446 54.94A4 4 0 0161 56.948a4.032 4.032 0 01-4.032 4.033l-41.936.017A4.033 4.033 0 0111 56.966c0-.736.211-1.415.554-2.009l20.968-41.952"/><path d="M37.613 47.27a1.613 1.613 0 01-3.226 0V23.893a1.613 1.613 0 013.226 0v23.379z"/><circle cx="36" cy="54.529" r="1.613"/></g><path fill="#fcea2b" d="M32.522 13.005c.698-1.205 1.986-2.024 3.478-2.024 1.492 0 2.78.82 3.478 2.024L60.446 54.94A4 4 0 0161 56.948a4.032 4.032 0 01-4.032 4.033l-41.936.017A4.033 4.033 0 0111 56.966c0-.736.211-1.415.554-2.009l20.968-41.952"/><path fill="#FFF" d="M37.613 47.27a1.613 1.613 0 01-3.226 0V23.893a1.613 1.613 0 013.226 0v23.379z"/><circle cx="36" cy="54.529" r="1.613" fill="#FFF"/><g fill="none" stroke="#000" stroke-linecap="round" stroke-linejoin="round" stroke-miterlimit="10" stroke-width="2"><path d="M32.522 13.005c.698-1.205 1.986-2.024 3.478-2.024 1.492 0 2.78.82 3.478 2.024L60.446 54.94A4 4 0 0161 56.948a4.032 4.032 0 01-4.032 4.033l-41.936.017A4.033 4.033 0 0111 56.966c0-.736.211-1.415.554-2.009l20.968-41.952"/><path d="M37.613 47.27a1.613 1.613 0 01-3.226 0V23.893a1.613 1.613 0 013.226 0v23.379z"/><circle cx="36" cy="54.529" r="1.613"/></g></svg>
